svgs/thin/kite.svg

<svg xmlns="http://www.w3.org/2000/svg" viewBox="0 0 640 512"><!--! Font Awesome Pro 6.3.0 by @fontawesome - https://fontawesome.com License - https://fontawesome.com/license (Commercial License) Copyright 2023 Fonticons, Inc. --><path d="M600-.0007h-256.6c-14.98 0-27.81 10.19-31.19 24.78L224.7 403.1l-84.43 84.43c-4.891 4.906-11.41 7.594-18.34 7.594C107.6 495.1 96 484.4 96 470.1V317.7l57.3 32.33c2.344 1.312 4.891 1.969 7.453 1.969c2.609 0 5.203-.6875 7.578-2.062C173.1 347.2 176 342.1 176 336.5V271.5c0-5.625-2.875-10.69-7.672-13.47C163.6 255.3 158 255.3 153.3 257.1L96 290.3V231.1c0-48.53-39.47-88-88-88c-4.422 0-8 3.603-8 8.009S3.578 159.1 8 159.1c39.7 0 72 32.31 72 72v58.3L22.7 257.1C17.98 255.3 12.39 255.4 7.672 258.1C2.875 260.8 0 265.8 0 271.4v65.16c0 5.625 2.875 10.6 7.672 13.38c2.375 1.375 4.984 2.062 7.594 2.062c2.547 0 5.094-.6562 7.422-1.969L80 317.7v152.4c0 23.12 18.81 41.94 41.94 41.94c11.22 0 21.77-4.375 29.66-12.28l84.46-84.46l379.2-87.48C629.8 324.4 640 311.6 640 296.6V39.1C640 17.94 622.1-.0007 600-.0007zM160 271.5v63.91L104.1 303.9L160 271.5zM16 336.5V272.6l55.88 31.53L16 336.5zM600 15.1c3.688 0 7.082 .9844 10.21 2.48L480 148.7l-132.7-132.7H600zM327.8 28.41c.5449-2.359 1.711-4.363 3.117-6.164l137.8 137.8l-222.6 222.6L327.8 28.41zM611.6 312.2L257.4 393.9L480 171.3l137.8 137.8C615.1 310.5 613.1 311.7 611.6 312.2zM624 292.7L491.3 159.1l130.2-130.2C623 32.92 624 36.31 624 39.1V292.7z"/></svg>

<svg xmlns="http://www.w3.org/2000/svg" viewBox="0 0 640 512"><!-- Font Awesome Pro 6.0.0-alpha2 by @fontawesome - https://fontawesome.com License - https://fontawesome.com/license (Commercial License) --><path d="M600 0H343.406C328.422 0 315.594 10.188 312.219 24.781L224.715 403.973L140.281 488.406C135.391 493.312 128.875 496 121.938 496C107.641 496 96 484.375 96 470.062V317.703L153.297 350.031C155.641 351.344 158.188 352 160.75 352C163.359 352 165.953 351.312 168.328 349.938C173.125 347.156 176 342.094 176 336.469V271.531C176 265.906 173.125 260.844 168.328 258.063C163.641 255.344 158.031 255.312 153.312 257.969L96 290.297V232C96 183.469 56.531 144 8 144C3.578 144 0 147.594 0 152S3.578 160 8 160C47.703 160 80 192.312 80 232V290.297L22.703 257.969C17.984 255.344 12.391 255.375 7.672 258.062C2.875 260.844 0 265.906 0 271.531V336.469C0 342.094 2.875 347.156 7.672 349.938C10.047 351.312 12.656 352 15.266 352C17.812 352 20.359 351.344 22.688 350.031L80 317.703V470.063C80 493.188 98.812 512 121.938 512C133.156 512 143.703 507.625 151.594 499.719L236.051 415.262L615.203 327.781C629.797 324.406 640 311.562 640 296.594V40C640 17.938 622.062 0 600 0ZM160 271.531V335.438L104.125 303.906L160 271.531ZM16 336.469V272.562L71.875 304.094L16 336.469ZM600 16C603.688 16 607.082 16.984 610.207 18.48L480 148.688L347.312 16H600ZM327.812 28.406C328.357 26.047 329.523 24.043 330.93 22.242L468.688 160L246.061 382.625L327.812 28.406ZM611.594 312.219L257.396 393.914L480 171.312L617.76 309.07C615.957 310.484 613.953 311.664 611.594 312.219ZM624 292.688L491.312 160L621.518 29.797C623.012 32.922 624 36.312 624 40V292.688Z"/></svg>
